img/header/header-icon.svg

<svg width="32" height="32" viewBox="0 0 32 32" fill="none" xmlns="http://www.w3.org/2000/svg">
<g clip-path="url(#clip0_1_158)">
<path d="M28.2713 21.2586H27.1876V20.3023H28.2713C29.0363 20.3023 29.6738 19.6648 29.6738 18.8998V12.2061C29.6738 10.9948 28.6538 9.97483 27.4426 9.97483H20.4301C19.2188 9.97483 18.1988 10.9948 18.1988 12.2061V18.8998C18.1988 19.6648 18.8363 20.3023 19.6013 20.3023H20.6851V21.2586H19.6013C18.2626 21.2586 17.2426 20.1748 17.2426 18.8998V12.2061C17.2426 10.4211 18.6451 9.01858 20.4301 9.01858H27.5063C29.2913 9.01858 30.6938 10.4211 30.6938 12.2061V18.8998C30.6938 20.2386 29.6101 21.2586 28.2713 21.2586ZM23.9363 7.99858C22.0238 7.99858 20.4301 6.40483 20.4301 4.49233C20.4301 2.57983 22.0238 0.986084 23.9363 0.986084C25.8488 0.986084 27.4426 2.57983 27.4426 4.49233C27.4426 6.40483 25.9126 7.99858 23.9363 7.99858ZM23.9363 2.00608C22.5338 2.00608 21.3863 3.15358 21.3863 4.55608C21.3863 5.95858 22.5338 7.10608 23.9363 7.10608C25.3388 7.10608 26.4863 5.95858 26.4863 4.55608C26.4863 3.15358 25.3388 2.00608 23.9363 2.00608Z" fill="#F5F5F4"/>
<path d="M25.5937 30.6935C24.9562 30.6935 24.3825 30.3748 24 29.9285C23.6175 30.3748 23.0437 30.6935 22.4062 30.6935C21.2587 30.6935 20.3025 29.7373 20.3025 28.5898V13.0348H21.2587V28.5898C21.2587 29.2273 21.7687 29.7373 22.4062 29.7373C23.0437 29.7373 23.49 29.1635 23.49 28.5898V20.8123H24.4462V28.5898C24.4462 29.2273 24.9562 29.7373 25.5937 29.7373C26.2312 29.7373 26.7412 29.2273 26.7412 28.5898V13.0348H27.6975V28.5898C27.6975 29.7373 26.7412 30.6935 25.5937 30.6935Z" fill="#F5F5F4"/>
<path d="M18.7088 24.0636H1.05005V4.04614H19.0275V5.00239H2.0063V23.1074H18.7088V24.0636Z" fill="#F5F5F4"/>
<path d="M15.585 12.9712H4.62V13.9274H15.585V12.9712Z" fill="#F5F5F4"/>
<path d="M15.585 16.2224H4.62V17.1787H15.585V16.2224Z" fill="#F5F5F4"/>
<path d="M15.585 19.5374H4.62V20.4936H15.585V19.5374Z" fill="#F5F5F4"/>
</g>
<defs>
<clipPath id="clip0_1_158">
<rect width="30.6" height="30.6" fill="white" transform="translate(0.540039 0.539917)"/>
</clipPath>
</defs>
</svg>

<svg width="32" height="32" fill="none" xmlns="http://www.w3.org/2000/svg"><g clip-path="url(#clip0_1_158)" fill="#F5F5F4"><path d="M28.271 21.259h-1.083v-.957h1.083c.765 0 1.403-.637 1.403-1.402v-6.694c0-1.211-1.02-2.231-2.231-2.231H20.43c-1.211 0-2.231 1.02-2.231 2.231V18.9c0 .765.637 1.402 1.402 1.402h1.084v.957h-1.084a2.353 2.353 0 01-2.358-2.36v-6.693A3.157 3.157 0 0120.43 9.02h7.076a3.157 3.157 0 013.188 3.187V18.9c0 1.339-1.084 2.359-2.423 2.359zm-4.335-13.26c-1.912 0-3.506-1.594-3.506-3.507 0-1.912 1.594-3.506 3.506-3.506 1.913 0 3.507 1.594 3.507 3.506A3.496 3.496 0 0123.936 8zm0-5.993a2.557 2.557 0 00-2.55 2.55 2.557 2.557 0 002.55 2.55 2.557 2.557 0 002.55-2.55 2.557 2.557 0 00-2.55-2.55z"/><path d="M25.594 30.694c-.638 0-1.212-.32-1.594-.765-.383.446-.956.765-1.594.765a2.122 2.122 0 01-2.104-2.104V13.035h.957V28.59c0 .637.51 1.147 1.147 1.147.638 0 1.084-.573 1.084-1.147v-7.778h.956v7.778c0 .637.51 1.147 1.148 1.147.637 0 1.147-.51 1.147-1.147V13.035h.957V28.59a2.122 2.122 0 01-2.104 2.104zm-6.885-6.63H1.05V4.046h17.977v.956H2.008v18.105H18.71v.957z"/><path d="M15.585 12.971H4.62v.956h10.965v-.956zm0 3.251H4.62v.957h10.965v-.957zm0 3.315H4.62v.957h10.965v-.957z"/></g><defs><clipPath id="clip0_1_158"><path fill="#fff" transform="translate(.54 .54)" d="M0 0h30.6v30.6H0z"/></clipPath></defs></svg>
